!!!OTL: WILLKOMMEN O SELIGER ABEND
!!!ARE: Europa, Mitteleuropa, Deutschland
!!!SCT: B0230
!!!YEM: Copyright 1995, estate of Helmut Schaffrath.
**kern
*ICvox
*Ivox
*M4/4
*k[]
*C:
{8G
=1
4G
8E
8F
8G
8e
8d
8c
=2
8c
8B
4B
4r}
{8c
8A
=3
8A
8G
8E
8G
8G
8F
8D
8F
=4
4F
2E}
{4G
=5
4e
8c
8G
4f
8d
8B
=6
8g
8e
4c
4r}
{8e
8c
=7
8B
8A
8f
8d
8d
8c
8c
8B
=8
4d
2c
8r}
==
!!!AGN: Tageszeiten - Lied, Abend
!!!ONB: ESAC (Essen Associative Code) Database: BOEHME
!!!AMT: simple quadruple
!!!AIN: vox
!!!EED: Helmut Schaffrath
!!!EEV: 1.0
*-
